<?xml version="1.0" encoding="UTF-8"?>
<map version="1.10" tiledversion="1.11.2" orientation="orthogonal" renderorder="right-down" width="35" height="32" tilewidth="16" tileheight="16" infinite="0" nextlayerid="11" nextobjectid="100">
 <tileset firstgid="1" source="../tilesets/dungeon_tileset.tsx"/>
 <tileset firstgid="271" source="../tilesets/Objects.tsx"/>
 <layer id="1" name="Background" width="35" height="32">
  <data encoding="csv">
131,131,131,131,131,131,131,131,131,131,131,131,131,131,131,131,131,131,131,131,131,131,131,131,131,131,131,131,131,131,131,131,131,131,131,
131,131,131,131,131,131,131,131,131,131,131,131,131,131,131,131,131,131,131,131,131,131,131,131,131,131,131,131,131,131,131,131,131,131,131,
131,131,131,131,131,131,131,131,131,131,131,131,131,131,131,131,131,131,131,131,131,131,131,131,131,131,131,131,131,131,131,131,131,131,131,
131,131,131,131,131,131,131,131,131,131,131,131,131,131,131,131,131,131,131,131,131,131,131,131,131,131,131,131,131,131,131,131,131,131,131,
131,131,131,131,131,131,131,131,131,131,131,131,131,131,131,131,131,131,131,131,131,131,131,131,131,131,131,131,131,131,131,131,131,131,131,
131,131,131,131,131,131,131,131,131,131,131,131,131,131,131,131,131,131,131,131,131,131,131,131,131,131,131,131,131,131,131,131,131,131,131,
131,131,131,131,131,131,131,131,131,131,131,131,131,131,131,131,131,131,131,131,131,131,131,131,131,131,131,131,131,131,131,131,131,131,131,
131,131,131,131,131,131,131,131,131,131,131,131,131,131,131,131,131,131,131,131,131,131,131,131,131,131,131,131,131,131,131,131,131,131,131,
131,131,131,131,131,131,131,131,131,131,131,131,131,131,131,131,131,131,131,131,131,131,131,131,131,131,131,131,131,131,131,131,131,131,131,
131,131,131,131,131,131,131,131,131,131,131,131,131,131,131,131,131,131,131,131,131,131,131,131,131,131,131,131,131,131,131,131,131,131,131,
131,131,131,131,131,131,131,131,131,131,131,131,131,131,131,131,131,131,131,131,131,131,131,131,131,131,131,131,131,131,131,131,131,131,131,
131,131,131,131,131,131,131,131,131,131,131,131,131,131,131,131,131,131,131,131,131,131,131,131,131,131,131,131,131,131,131,131,131,131,131,
131,131,131,131,131,131,131,131,131,131,131,24,24,24,24,24,24,24,24,24,24,24,24,24,24,24,24,24,24,131,131,131,131,131,131,
131,131,131,131,131,131,131,131,131,131,131,24,24,24,24,24,24,24,24,24,24,24,24,24,24,24,24,24,24,131,131,131,131,131,131,
131,131,131,131,131,131,131,131,131,131,131,24,24,24,24,24,24,24,24,24,24,24,24,24,24,24,24,24,24,131,131,131,131,131,131,
131,131,131,131,131,131,131,131,131,131,131,24,24,24,24,24,24,24,24,24,24,24,24,24,24,24,24,24,24,131,131,131,131,131,131,
131,131,131,131,131,131,131,131,131,131,131,24,24,24,24,24,24,24,24,24,24,24,24,24,24,24,24,24,24,131,131,131,131,131,131,
131,131,131,131,131,131,131,131,131,131,131,24,24,24,24,24,24,24,24,209,24,24,24,24,24,24,24,24,24,131,131,131,131,131,131,
131,131,131,131,131,131,131,131,131,131,131,24,24,24,24,24,24,24,24,24,24,24,24,24,24,24,24,24,24,131,131,131,131,131,131,
131,131,131,131,131,131,131,131,131,131,131,24,24,24,24,24,24,24,24,24,24,24,24,24,24,24,24,24,24,131,131,131,131,131,131,
131,131,131,131,131,131,131,131,131,131,131,24,24,24,24,24,24,24,24,24,24,24,24,24,24,24,24,24,24,131,131,131,131,131,131,
131,131,131,131,131,131,131,131,131,131,131,24,24,24,24,24,24,24,24,24,24,24,24,24,24,24,24,24,24,131,131,131,131,131,131,
131,131,131,131,131,131,131,131,131,131,131,24,24,24,24,24,24,24,24,24,24,24,24,24,24,24,24,24,24,131,131,131,131,131,131,
131,131,131,131,131,131,131,131,131,131,131,24,24,24,24,24,24,24,24,24,24,24,24,24,24,24,24,24,24,131,131,131,131,131,131,
131,131,131,131,131,131,131,131,131,131,131,131,131,131,131,131,131,131,131,131,131,131,131,131,131,131,131,131,131,131,131,131,131,131,131,
131,131,131,131,131,131,131,131,131,131,131,131,131,131,131,131,131,131,131,131,131,131,131,131,131,131,131,131,131,131,131,131,131,131,131,
131,131,131,131,131,131,131,131,131,131,131,131,131,131,131,131,131,131,131,131,131,131,131,131,131,131,131,131,131,131,131,131,131,131,131,
131,131,131,131,131,131,131,131,131,131,131,131,131,131,131,131,131,131,131,131,131,131,131,131,131,131,131,131,131,131,131,131,131,131,131,
131,131,131,131,131,131,131,131,131,131,131,131,131,131,131,131,131,131,131,131,131,131,131,131,131,131,131,131,131,131,131,131,131,131,131,
131,131,131,131,131,131,131,131,131,131,131,131,131,131,131,131,131,131,131,131,131,131,131,131,131,131,131,131,131,131,131,131,131,131,131,
131,131,131,131,131,131,131,131,131,131,131,131,131,131,131,131,131,131,131,131,131,131,131,131,131,131,131,131,131,131,131,131,131,131,131,
131,131,131,131,131,131,131,131,131,131,131,131,131,131,131,131,131,131,131,131,131,131,131,131,131,131,131,131,131,131,131,131,131,131,131
</data>
 </layer>
 <layer id="6" name="Ground" width="35" height="32">
  <data encoding="csv">
0,0,0,0,0,0,0,0,0,0,0,0,0,0,0,0,0,0,0,0,0,0,0,0,0,0,0,0,0,0,0,0,0,0,0,
0,0,0,0,0,0,0,0,0,0,0,0,0,0,0,0,0,0,0,0,0,0,0,0,0,0,0,0,0,0,0,0,0,0,0,
0,0,0,0,0,0,0,0,0,0,0,0,0,0,0,0,0,0,0,0,0,0,0,0,0,0,0,0,0,0,0,0,0,0,0,
0,0,0,0,0,0,0,0,0,0,0,0,0,0,0,0,0,0,0,0,0,0,0,0,0,0,0,0,0,0,0,0,0,0,0,
0,0,0,0,0,0,0,0,0,0,0,0,0,0,0,0,0,0,0,0,0,0,0,0,0,0,0,0,0,0,0,0,0,0,0,
0,0,0,0,0,0,0,0,0,0,0,0,0,0,0,0,0,0,0,0,0,0,0,0,0,0,0,0,0,0,0,0,0,0,0,
0,0,0,0,0,0,0,0,0,0,0,0,0,0,0,0,0,0,0,0,0,0,0,0,0,0,0,0,0,0,0,0,0,0,0,
0,0,0,0,0,0,0,0,0,0,0,0,0,0,0,0,0,0,0,0,0,0,0,0,0,0,0,0,0,0,0,0,0,0,0,
0,0,0,0,0,0,0,0,0,0,0,0,0,0,0,0,0,0,0,0,0,0,0,0,0,0,0,0,0,0,0,0,0,0,0,
0,0,0,0,0,0,0,0,0,0,0,0,0,0,0,0,0,0,0,0,0,0,0,0,0,0,0,0,0,0,0,0,0,0,0,
0,0,0,0,0,0,0,0,0,26,31,31,28,27,30,27,30,29,27,31,28,29,30,31,28,27,30,27,29,27,32,0,0,0,0,
0,0,0,0,0,0,0,0,0,80,45,48,48,47,47,46,47,46,46,46,48,46,48,47,47,48,47,47,48,49,187,0,0,0,0,
0,0,0,0,0,0,0,0,131,116,81,5,6,6,6,6,6,6,6,6,6,6,6,6,6,6,6,6,7,67,50,0,0,0,0,
0,0,0,0,0,0,0,0,131,116,99,23,24,4,24,24,24,3,24,24,24,24,24,24,24,24,24,24,25,85,50,0,0,0,0,
0,0,0,0,0,0,0,131,131,62,81,23,24,24,24,24,24,24,24,24,24,24,3,24,24,24,24,24,25,85,104,0,0,0,0,
0,0,0,0,0,0,0,0,131,98,63,23,73,24,20,24,110,42,42,42,42,42,42,24,4,24,24,24,25,85,68,0,0,0,0,
0,0,0,0,0,0,0,0,0,44,63,23,24,24,24,24,25,92,22,92,92,21,92,23,24,24,24,24,25,67,104,0,0,0,0,
0,0,0,0,0,0,0,0,0,44,99,23,24,3,24,24,25,20,131,131,131,131,92,23,24,24,24,24,25,85,122,0,0,0,0,
0,0,0,0,0,0,0,0,0,44,63,23,24,24,24,24,25,92,131,131,131,131,20,23,24,24,24,24,25,103,104,0,0,0,0,
0,0,0,0,0,0,0,0,0,98,63,23,24,4,24,4,92,21,92,20,92,92,92,23,24,74,74,24,25,85,122,0,0,0,0,
0,0,0,0,0,0,0,0,0,116,99,23,24,24,24,0,24,6,6,6,6,6,6,24,74,92,92,93,25,67,68,0,0,0,0,
0,0,0,0,0,0,0,0,0,80,99,23,24,24,24,24,24,24,4,24,24,24,24,91,92,92,92,93,25,67,86,0,0,0,0,
0,0,0,0,0,0,0,0,0,116,63,23,3,24,24,24,24,24,24,24,24,24,24,24,110,110,110,24,25,103,122,0,0,0,0,
0,0,0,0,0,0,0,0,0,62,63,41,42,42,42,42,42,42,42,42,42,42,42,42,42,42,42,42,43,67,68,0,0,0,0,
0,0,0,0,0,0,0,0,0,116,117,120,119,119,118,120,118,119,120,120,120,118,119,120,119,119,119,119,120,121,86,0,0,0,0,
0,0,0,0,0,0,0,0,0,134,137,135,137,139,137,135,136,136,138,136,135,139,138,139,138,139,138,138,137,136,140,0,0,0,0,
0,0,0,0,0,0,0,0,0,0,0,0,0,0,0,0,0,0,0,0,0,0,0,0,0,0,0,0,0,0,0,0,0,0,0,
0,0,0,0,0,0,0,0,0,0,0,0,0,0,0,0,0,0,0,0,0,0,0,0,0,0,0,0,0,0,0,0,0,0,0,
0,0,0,0,0,0,0,0,0,0,0,0,0,0,0,0,0,0,0,0,0,0,0,0,0,0,0,0,0,0,0,0,0,0,0,
0,0,0,0,0,0,0,0,0,0,0,0,0,0,0,0,0,0,0,0,0,0,0,0,0,0,0,0,0,0,0,0,0,0,0,
0,0,0,0,0,0,0,0,0,0,0,0,0,0,0,0,0,0,0,0,0,0,0,0,0,0,0,0,0,0,0,0,0,0,0,
0,0,0,0,0,0,0,0,0,0,0,0,0,0,0,0,0,0,0,0,0,0,0,0,0,0,0,0,0,0,0,0,0,0,0
</data>
 </layer>
 <layer id="5" name="Details" width="35" height="32">
  <data encoding="csv">
0,0,0,0,0,0,0,0,0,0,0,0,0,0,0,0,0,0,0,0,0,0,0,0,0,0,0,0,0,0,0,0,0,0,0,
0,0,0,0,0,0,0,0,0,0,0,0,0,0,0,0,0,0,0,0,0,0,0,0,0,0,0,0,0,0,0,0,0,0,0,
0,0,0,0,0,0,0,0,0,0,0,0,0,0,0,0,0,0,0,0,0,0,0,0,0,0,0,0,0,0,0,0,0,0,0,
0,0,0,0,0,0,0,0,0,0,0,0,0,0,0,0,0,0,0,0,0,0,0,0,0,0,0,0,0,0,0,0,0,0,0,
0,0,0,0,0,0,0,0,0,0,0,0,0,0,0,0,0,0,0,0,0,0,0,0,0,0,0,0,0,0,0,0,0,0,0,
0,0,0,0,0,0,0,0,0,0,0,0,0,0,0,0,0,0,0,0,0,0,0,0,0,0,0,0,0,0,0,0,0,0,0,
0,0,0,0,0,0,0,0,0,0,0,0,0,0,0,0,0,0,0,0,0,0,0,0,0,0,0,0,0,0,131,0,0,0,0,
0,0,0,0,0,0,0,0,0,0,0,0,0,0,0,0,0,0,0,0,0,0,0,0,0,0,0,177,0,0,131,0,0,0,0,
0,0,0,0,0,0,0,0,0,0,0,0,0,0,0,0,0,0,0,0,0,0,0,0,0,0,0,0,0,0,131,0,0,0,0,
0,0,0,0,0,0,0,0,0,131,131,131,131,131,131,131,131,131,131,131,131,131,131,131,131,131,131,131,131,131,131,0,0,0,0,
0,0,0,0,0,0,0,0,0,131,131,131,131,131,131,131,131,131,131,131,131,131,131,131,131,131,131,131,131,131,131,0,0,0,0,
0,0,0,0,0,0,0,0,0,131,131,131,131,131,131,131,131,131,131,131,131,131,131,131,131,131,131,131,131,131,131,0,0,0,0,
0,0,0,0,0,0,0,0,0,131,131,3221225650,3221225650,214,214,3221225650,2684354757,1610612931,214,214,214,214,3221225650,1610612931,214,2684354757,3221225650,214,213,131,131,0,0,0,0,
0,0,0,0,0,0,0,0,0,131,131,3221225667,0,73,74,74,74,0,0,0,0,0,0,0,0,0,0,0,3221225669,131,131,0,0,0,0,
0,0,0,0,0,0,0,0,0,131,131,2684354738,2,91,92,21,92,93,0,3,0,24,0,0,0,0,0,0,1610612914,131,131,0,0,0,0,
0,0,0,0,0,0,0,0,0,131,131,1610612950,0,74,0,76,110,0,0,0,0,0,0,0,0,0,24,24,2684354774,131,131,0,0,0,0,
0,0,0,0,0,0,0,0,0,131,131,2684354738,91,22,92,93,0,0,1610612933,1073742038,178,178,0,0,0,0,4,0,195,131,131,0,0,0,0,
0,0,0,0,0,0,0,0,0,131,131,197,91,92,92,93,0,3758096598,0,0,0,0,197,0,0,0,0,0,3221225669,131,131,0,0,0,0,
0,0,0,0,0,0,0,0,0,131,131,1610612950,0,110,110,111,74,195,0,0,0,0,536871126,0,2,0,0,0,2684354774,131,131,0,0,0,0,
0,0,0,0,0,0,0,0,0,131,131,2684354738,0,24,0,91,0,213,1073742002,214,3221225650,1073742002,22,0,0,0,0,0,195,131,131,0,0,0,0,
0,0,0,0,0,0,0,0,0,131,131,197,24,0,0,91,19,19,77,77,0,0,0,0,0,0,22,0,195,131,131,0,0,0,0,
0,0,0,0,0,0,0,0,0,131,131,1610612950,0,0,3,91,22,93,0,0,0,0,0,0,0,21,0,0,2684354774,131,131,0,0,0,0,
0,0,0,0,0,0,0,0,0,131,131,3221225667,0,0,0,0,110,111,0,0,0,0,0,0,0,0,0,0,195,131,131,0,0,0,0,
0,0,0,0,0,0,0,0,0,131,131,178,3221225686,178,3221225686,178,2684354755,1610612933,3221225686,178,2684354755,2684354755,178,3221225686,2684354755,1610612933,178,178,178,131,131,0,0,0,0,
0,0,0,0,0,0,0,0,0,131,131,131,131,131,131,131,131,131,131,131,131,131,131,131,131,131,131,131,131,131,131,0,0,0,0,
0,0,0,0,0,0,0,0,0,131,131,131,131,131,131,131,131,131,131,131,131,131,131,131,131,131,131,131,131,131,131,0,0,0,0,
0,0,0,0,0,0,0,0,0,0,0,0,0,0,0,0,0,0,0,0,0,0,0,0,0,0,0,0,0,0,0,0,0,0,0,
0,0,0,0,0,0,0,0,0,0,0,0,0,0,0,0,0,0,0,0,0,0,0,0,0,0,0,0,0,0,0,0,0,0,0,
0,0,0,0,0,0,0,0,0,0,0,0,0,0,0,0,0,0,0,0,0,0,0,0,0,0,0,0,0,0,0,0,0,0,0,
0,0,0,0,0,0,0,0,0,0,0,0,0,0,0,0,0,0,0,0,0,0,0,0,0,0,0,0,0,0,0,0,0,0,0,
0,0,0,0,0,0,0,0,0,0,0,0,0,0,0,0,0,0,0,0,0,0,0,0,0,0,0,0,0,0,0,0,0,0,0,
0,0,0,0,0,0,0,0,0,0,0,0,0,0,0,0,0,0,0,0,0,0,0,0,0,0,0,0,0,0,0,0,0,0,0
</data>
 </layer>
 <objectgroup id="8" name="Entities">
  <object id="46" name="Player" x="319" y="226">
   <point/>
  </object>
  <object id="58" name="Enemy" x="244.333" y="326.167">
   <point/>
  </object>
  <object id="64" name="Enemy" x="198.667" y="305">
   <point/>
  </object>
  <object id="65" name="Enemy" x="287.667" y="362.5">
   <point/>
  </object>
  <object id="66" name="Enemy" x="432.5" y="221">
   <point/>
  </object>
  <object id="82" name="Enemy" x="206" y="361.5">
   <point/>
  </object>
  <object id="83" name="Enemy" x="436" y="354.5">
   <point/>
  </object>
  <object id="88" name="Enemy" x="345" y="360.5">
   <point/>
  </object>
  <object id="91" name="Enemy" x="198.5" y="220.5">
   <point/>
  </object>
  <object id="92" name="Enemy" x="391.5" y="252.5">
   <point/>
  </object>
  <object id="93" name="Enemy" x="438" y="274">
   <point/>
  </object>
  <object id="94" name="Enemy" x="393" y="316.5">
   <point/>
  </object>
  <object id="99" name="Enemy" x="226" y="255.5">
   <point/>
  </object>
 </objectgroup>
 <objectgroup id="9" name="Collisions">
  <object id="4" x="462.515" y="185.167" width="19.1364" height="193.606"/>
  <object id="37" x="157" y="373.166" width="328" height="33.0001"/>
  <object id="60" x="156.667" y="158.167" width="328" height="33.0001"/>
  <object id="61" x="286.833" y="261.667" width="66.3333" height="43.0001"/>
  <object id="63" x="154.848" y="189.864" width="21.6364" height="193.606"/>
 </objectgroup>
 <objectgroup id="10" name="Objects"/>
</map>
