<?xml version="1.0" encoding="UTF-8"?>
<map version="1.10" tiledversion="1.11.2" orientation="orthogonal" renderorder="right-down" width="35" height="32" tilewidth="16" tileheight="16" infinite="0" nextlayerid="11" nextobjectid="97">
 <tileset firstgid="1" source="../tilesets/dungeon_tileset.tsx"/>
 <tileset firstgid="271" source="../tilesets/Objects.tsx"/>
 <layer id="1" name="Background" width="35" height="32">
  <data encoding="csv">
131,131,131,131,131,131,131,131,131,131,131,131,131,131,131,131,131,131,131,131,131,131,131,131,131,131,131,131,131,131,131,131,131,131,131,
131,131,131,131,131,131,131,131,131,131,131,131,131,131,131,131,131,131,131,131,131,131,131,131,131,131,131,131,131,131,131,131,131,131,131,
131,131,131,131,131,131,131,131,131,131,131,131,131,131,131,131,131,131,131,131,131,131,131,131,131,131,131,131,131,131,131,131,131,131,131,
131,131,131,131,131,131,131,131,131,131,131,131,131,131,131,131,131,131,131,131,131,131,131,131,131,131,131,131,131,131,131,131,131,131,131,
131,131,131,131,131,131,131,131,131,131,131,131,131,131,131,131,131,131,131,131,131,131,131,131,131,131,131,131,131,131,131,131,131,131,131,
131,131,131,131,131,131,131,131,131,131,131,131,131,131,131,131,131,131,131,131,131,131,131,131,131,131,131,131,131,131,131,131,131,131,131,
131,131,131,131,131,131,131,131,131,131,131,131,131,131,131,131,131,131,131,131,131,131,131,131,131,131,131,131,131,131,131,131,131,131,131,
131,131,131,131,131,131,131,131,131,131,131,131,131,131,131,131,131,131,131,131,131,131,131,131,131,131,131,131,131,131,131,131,131,131,131,
131,131,131,131,131,131,131,131,131,131,131,131,131,131,131,131,131,131,131,131,131,131,131,131,131,131,131,131,131,131,131,131,131,131,131,
131,131,131,131,131,131,131,131,131,131,131,131,131,131,131,131,131,131,131,131,131,131,131,131,131,131,131,131,131,131,131,131,131,131,131,
131,131,131,131,131,131,131,131,131,131,131,131,131,131,131,131,131,131,131,131,131,131,131,131,131,131,131,131,131,131,131,131,131,131,131,
131,131,131,131,131,131,131,131,131,131,131,131,131,131,131,131,131,131,131,131,131,131,131,131,131,131,131,131,131,131,131,131,131,131,131,
131,131,131,131,131,131,131,131,131,131,131,131,131,131,131,131,131,131,131,131,131,131,131,131,131,131,131,131,131,131,131,131,131,131,131,
131,131,131,131,131,131,131,131,131,131,131,131,131,131,131,131,131,131,131,131,131,131,131,131,131,131,131,131,131,131,131,131,131,131,131,
131,131,131,131,131,131,131,131,131,131,131,131,131,131,131,131,131,131,131,131,131,131,131,131,131,131,131,131,131,131,131,131,131,131,131,
131,131,131,131,131,131,131,131,131,131,131,131,131,131,131,131,131,131,131,131,131,131,131,131,131,131,131,131,131,131,131,131,131,131,131,
131,131,131,131,131,131,131,131,131,131,131,131,131,131,131,131,131,131,131,131,131,131,131,131,131,131,131,131,131,131,131,131,131,131,131,
131,131,131,131,131,131,131,131,131,131,131,131,131,131,131,131,131,131,131,209,131,131,131,131,131,131,131,131,131,131,131,131,131,131,131,
131,131,131,131,131,131,131,131,131,131,131,131,131,131,131,131,131,131,131,131,131,131,131,131,131,131,131,131,131,131,131,131,131,131,131,
131,131,131,131,131,131,131,131,131,131,131,131,131,131,131,131,131,131,131,131,131,131,131,131,131,131,131,131,131,131,131,131,131,131,131,
131,131,131,131,131,131,131,131,131,131,131,131,131,131,131,131,131,131,131,131,131,131,131,131,131,131,131,131,131,131,131,131,131,131,131,
131,131,131,131,131,131,131,131,131,131,131,131,131,131,131,131,131,131,131,131,131,131,131,131,131,131,131,131,131,131,131,131,131,131,131,
131,131,131,131,131,131,131,131,131,131,131,131,131,131,131,131,131,131,131,131,131,131,131,131,131,131,131,131,131,131,131,131,131,131,131,
131,131,131,131,131,131,131,131,131,131,131,131,131,131,131,131,131,131,131,131,131,131,131,131,131,131,131,131,131,131,131,131,131,131,131,
131,131,131,131,131,131,131,131,131,131,131,131,131,131,131,131,131,131,131,131,131,131,131,131,131,131,131,131,131,131,131,131,131,131,131,
131,131,131,131,131,131,131,131,131,131,131,131,131,131,131,131,131,131,131,131,131,131,131,131,131,131,131,131,131,131,131,131,131,131,131,
131,131,131,131,131,131,131,131,131,131,131,131,131,131,131,131,131,131,131,131,131,131,131,131,131,131,131,131,131,131,131,131,131,131,131,
131,131,131,131,131,131,131,131,131,131,131,131,131,131,131,131,131,131,131,131,131,131,131,131,131,131,131,131,131,131,131,131,131,131,131,
131,131,131,131,131,131,131,131,131,131,131,131,131,131,131,131,131,131,131,131,131,131,131,131,131,131,131,131,131,131,131,131,131,131,131,
131,131,131,131,131,131,131,131,131,131,131,131,131,131,131,131,131,131,131,131,131,131,131,131,131,131,131,131,131,131,131,131,131,131,131,
131,131,131,131,131,131,131,131,131,131,131,131,131,131,131,131,131,131,131,131,131,131,131,131,131,131,131,131,131,131,131,131,131,131,131,
131,131,131,131,131,131,131,131,131,131,131,131,131,131,131,131,131,131,131,131,131,131,131,131,131,131,131,131,131,131,131,131,131,131,131
</data>
 </layer>
 <layer id="6" name="Ground" width="35" height="32">
  <data encoding="csv">
0,0,0,0,0,0,0,0,0,0,0,0,0,0,0,0,0,0,0,0,0,0,0,0,0,0,0,0,0,0,0,0,0,0,0,
0,0,0,0,0,0,0,0,0,0,0,0,0,0,0,0,0,0,0,0,0,0,0,0,0,0,0,0,0,0,0,0,0,0,0,
0,0,0,0,0,0,0,0,0,0,0,0,0,0,0,0,0,0,0,0,0,0,0,0,0,0,0,0,0,0,0,0,0,0,0,
0,0,0,0,0,0,0,0,0,0,0,0,0,0,0,0,0,0,0,0,0,0,0,0,0,0,0,0,0,0,0,0,0,0,0,
0,0,0,0,0,0,0,0,0,0,0,0,0,0,0,0,0,0,0,0,0,0,0,0,0,0,0,0,0,0,0,0,0,0,0,
0,0,0,0,0,0,0,0,0,0,0,0,0,0,0,0,0,0,0,0,0,0,0,0,0,0,0,0,0,0,0,0,0,0,0,
0,0,0,0,0,0,0,0,0,0,0,0,0,0,0,0,0,0,0,0,0,0,0,0,0,0,0,0,0,0,0,0,0,0,0,
0,0,0,0,0,0,0,0,0,0,0,0,0,0,0,0,0,0,0,0,0,0,0,0,0,0,0,0,0,0,0,0,0,0,0,
0,0,0,0,0,0,0,0,0,0,0,0,0,0,0,0,0,0,0,0,0,0,0,0,0,0,0,0,0,0,0,0,0,0,0,
0,0,0,0,0,0,0,0,0,0,0,0,0,0,0,0,0,0,0,0,0,0,0,0,0,0,0,0,0,0,0,0,0,0,0,
0,0,0,0,0,0,0,0,0,145,149,147,149,147,149,147,148,149,147,148,149,148,148,147,149,147,149,148,149,147,151,0,0,0,0,
0,0,0,0,0,0,0,0,0,199,164,166,165,167,166,167,166,165,165,166,166,167,167,165,166,166,167,165,166,168,187,0,0,0,0,
0,0,0,0,0,0,0,0,131,235,200,183,184,184,184,184,184,184,184,184,184,184,184,184,184,184,184,184,185,222,169,0,0,0,0,
0,0,0,0,0,0,0,0,131,217,200,201,127,128,202,202,202,202,202,202,127,130,202,202,202,202,130,202,203,204,241,0,0,0,0,
0,0,0,0,0,0,0,131,131,199,200,201,127,128,130,130,130,130,202,202,128,130,129,129,129,130,129,202,203,204,241,0,0,0,0,
0,0,0,0,0,0,0,0,131,199,218,201,130,128,130,128,130,220,220,220,220,220,220,127,127,127,128,130,203,204,169,0,0,0,0,
0,0,0,0,0,0,0,0,0,163,182,201,130,127,130,130,203,164,165,165,167,166,168,201,130,130,129,130,203,204,169,0,0,0,0,
0,0,0,0,0,0,0,0,0,217,218,201,130,130,130,130,203,218,131,131,131,131,186,201,130,130,130,130,203,204,169,0,0,0,0,
0,0,0,0,0,0,0,0,0,163,182,201,129,130,130,130,203,182,131,131,131,131,204,201,130,128,130,130,203,204,205,0,0,0,0,
0,0,0,0,0,0,0,0,0,163,200,201,130,130,130,130,203,236,238,237,237,238,240,201,130,129,227,130,203,204,169,0,0,0,0,
0,0,0,0,0,0,0,0,0,181,218,201,129,127,130,130,130,184,184,184,184,184,184,130,227,228,209,208,203,222,241,0,0,0,0,
0,0,0,0,0,0,0,0,0,235,182,201,202,130,127,130,130,130,130,130,130,127,127,210,209,209,209,208,203,222,241,0,0,0,0,
0,0,0,0,0,0,0,0,0,235,200,201,130,130,130,130,130,130,130,127,127,129,128,130,191,191,191,129,203,204,205,0,0,0,0,
0,0,0,0,0,0,0,0,0,217,218,219,220,220,220,220,220,220,220,220,220,220,220,220,220,220,220,220,221,204,169,0,0,0,0,
0,0,0,0,0,0,0,0,0,199,236,237,238,238,237,237,238,239,237,237,237,239,239,239,239,239,237,238,237,240,241,0,0,0,0,
0,0,0,0,0,0,0,0,0,253,257,254,254,258,255,257,258,258,257,254,254,258,255,256,255,257,258,257,258,258,259,0,0,0,0,
0,0,0,0,0,0,0,0,0,0,0,0,0,0,0,0,0,0,0,0,0,0,0,0,0,0,0,0,0,0,0,0,0,0,0,
0,0,0,0,0,0,0,0,0,0,0,0,0,0,0,0,0,0,0,0,0,0,0,0,0,0,0,0,0,0,0,0,0,0,0,
0,0,0,0,0,0,0,0,0,0,0,0,0,0,0,0,0,0,0,0,0,0,0,0,0,0,0,0,0,0,0,0,0,0,0,
0,0,0,0,0,0,0,0,0,0,0,0,0,0,0,0,0,0,0,0,0,0,0,0,0,0,0,0,0,0,0,0,0,0,0,
0,0,0,0,0,0,0,0,0,0,0,0,0,0,0,0,0,0,0,0,0,0,0,0,0,0,0,0,0,0,0,0,0,0,0,
0,0,0,0,0,0,0,0,0,0,0,0,0,0,0,0,0,0,0,0,0,0,0,0,0,0,0,0,0,0,0,0,0,0,0
</data>
 </layer>
 <layer id="5" name="Details" width="35" height="32">
  <data encoding="csv">
0,0,0,0,0,0,0,0,0,0,0,0,0,0,0,0,0,0,0,0,0,0,0,0,0,0,0,0,0,0,0,0,0,0,0,
0,0,0,0,0,0,0,0,0,0,0,0,0,0,0,0,0,0,0,0,0,0,0,0,0,0,0,0,0,0,0,0,0,0,0,
0,0,0,0,0,0,0,0,0,0,0,0,0,0,0,0,0,0,0,0,0,0,0,0,0,0,0,0,0,0,0,0,0,0,0,
0,0,0,0,0,0,0,0,0,0,0,0,0,0,0,0,0,0,0,0,0,0,0,0,0,0,0,0,0,0,0,0,0,0,0,
0,0,0,0,0,0,0,0,0,0,0,0,0,0,0,0,0,0,0,0,0,0,0,0,0,0,0,0,0,0,0,0,0,0,0,
0,0,0,0,0,0,0,0,0,0,0,0,0,0,0,0,0,0,0,0,0,0,0,0,0,0,0,0,0,0,0,0,0,0,0,
0,0,0,0,0,0,0,0,0,0,0,0,0,0,0,0,0,0,0,0,0,0,0,0,0,0,0,0,0,0,0,0,0,0,0,
0,0,0,0,0,0,0,0,0,0,0,0,0,0,0,0,0,0,0,0,0,0,0,0,0,0,0,0,0,0,0,0,0,0,0,
0,0,0,0,0,0,0,0,0,0,0,0,0,0,0,0,0,0,0,0,0,0,0,0,0,0,0,0,0,0,0,0,0,0,0,
0,0,0,0,0,0,0,0,0,0,0,0,0,0,0,0,0,0,0,0,0,0,0,0,0,0,0,0,0,0,0,0,0,0,0,
0,0,0,0,0,0,0,0,0,0,0,0,0,0,0,0,0,0,0,0,0,0,0,0,0,0,0,0,0,0,0,0,0,0,0,
0,0,0,0,0,0,0,0,0,0,0,0,0,0,0,0,0,0,0,0,0,0,0,0,0,0,0,0,0,0,0,0,0,0,0,
0,0,0,0,0,0,0,0,0,0,0,0,0,0,0,0,0,0,0,0,0,0,0,0,0,0,0,0,0,0,0,0,0,0,0,
0,0,0,0,0,0,0,0,0,0,0,0,0,0,0,0,0,0,0,0,0,0,0,0,0,0,0,0,0,0,0,0,0,0,0,
0,0,0,0,0,0,0,0,0,0,0,0,0,0,0,0,0,0,0,0,0,0,0,0,0,0,0,0,0,0,0,0,0,0,0,
0,0,0,0,0,0,0,0,0,0,0,0,0,0,0,0,0,0,0,0,0,0,0,0,0,0,0,0,0,0,0,0,0,0,0,
0,0,0,0,0,0,0,0,0,0,0,0,0,0,0,0,0,0,178,1073742038,178,178,0,0,0,0,0,0,0,0,0,0,0,0,0,
0,0,0,0,0,0,0,0,0,0,0,0,0,0,0,0,0,3758096598,0,0,0,0,197,0,0,0,0,0,0,0,0,0,0,0,0,
0,0,0,0,0,0,0,0,0,0,0,0,0,0,0,0,0,195,0,0,0,0,536871126,0,0,0,0,0,0,0,0,0,0,0,0,
0,0,0,0,0,0,0,0,0,0,0,0,0,0,0,0,0,213,1073742002,214,3221225650,1073742002,0,0,0,177,178,179,0,0,0,0,0,0,0,
0,0,0,0,0,0,0,0,0,0,0,0,0,0,0,0,0,0,0,0,0,0,0,0,178,1073742038,0,197,0,0,0,0,0,0,0,
0,0,0,0,0,0,0,0,0,0,0,0,0,0,0,0,0,0,0,0,0,0,0,195,0,0,0,2147483843,0,0,0,0,0,0,0,
0,0,0,0,0,0,0,0,0,0,0,0,0,0,0,0,0,0,0,0,0,0,0,213,1073742002,214,1073742002,215,0,0,0,0,0,0,0,
0,0,0,0,0,0,0,0,0,0,0,0,0,0,0,0,0,0,0,0,0,0,0,0,0,0,0,0,0,0,0,0,0,0,0,
0,0,0,0,0,0,0,0,0,0,0,0,0,0,0,0,0,0,0,0,0,0,0,0,0,0,0,0,0,0,0,0,0,0,0,
0,0,0,0,0,0,0,0,0,0,0,0,0,0,0,0,0,0,0,0,0,0,0,0,0,0,0,0,0,0,0,0,0,0,0,
0,0,0,0,0,0,0,0,0,0,0,0,0,0,0,0,0,0,0,0,0,0,0,0,0,0,0,0,0,0,0,0,0,0,0,
0,0,0,0,0,0,0,0,0,0,0,0,0,0,0,0,0,0,0,0,0,0,0,0,0,0,0,0,0,0,0,0,0,0,0,
0,0,0,0,0,0,0,0,0,0,0,0,0,0,0,0,0,0,0,0,0,0,0,0,0,0,0,0,0,0,0,0,0,0,0,
0,0,0,0,0,0,0,0,0,0,0,0,0,0,0,0,0,0,0,0,0,0,0,0,0,0,0,0,0,0,0,0,0,0,0,
0,0,0,0,0,0,0,0,0,0,0,0,0,0,0,0,0,0,0,0,0,0,0,0,0,0,0,0,0,0,0,0,0,0,0,
0,0,0,0,0,0,0,0,0,0,0,0,0,0,0,0,0,0,0,0,0,0,0,0,0,0,0,0,0,0,0,0,0,0,0
</data>
 </layer>
 <objectgroup id="8" name="Entities">
  <object id="46" name="Player" x="319" y="226">
   <point/>
  </object>
  <object id="58" name="Enemy" x="244.333" y="326.167">
   <point/>
  </object>
  <object id="64" name="Enemy" x="198.667" y="305">
   <point/>
  </object>
  <object id="65" name="Enemy" x="286.167" y="368.5">
   <point/>
  </object>
  <object id="66" name="Enemy" x="436" y="219.5">
   <point/>
  </object>
  <object id="82" name="Enemy" x="205" y="369.5">
   <point/>
  </object>
  <object id="83" name="Enemy" x="450.5" y="369">
   <point/>
  </object>
  <object id="88" name="Enemy" x="345" y="360.5">
   <point/>
  </object>
  <object id="91" name="Enemy" x="198.5" y="220.5">
   <point/>
  </object>
  <object id="92" name="Enemy" x="390" y="246">
   <point/>
  </object>
  <object id="93" name="Enemy" x="449" y="270">
   <point/>
  </object>
  <object id="94" name="Enemy" x="393" y="316.5">
   <point/>
  </object>
 </objectgroup>
 <objectgroup id="9" name="Collisions">
  <object id="4" x="466.015" y="185.167" width="15.6364" height="193.606"/>
  <object id="37" x="157" y="373.166" width="328" height="33.0001"/>
  <object id="60" x="156.667" y="158.167" width="328" height="33.0001"/>
  <object id="61" x="271.333" y="245.667" width="97.3333" height="74.0001"/>
  <object id="63" x="154.848" y="189.864" width="19.6364" height="193.606"/>
  <object id="78" x="382.833" y="325.5" width="49.8333" height="27.5001"/>
  <object id="79" x="414.583" y="310" width="18.8333" height="25.0001"/>
  <object id="96" name="Enemy" x="240.5" y="260.5">
   <point/>
  </object>
 </objectgroup>
 <objectgroup id="10" name="Objects">
  <object id="68" gid="272" x="176.667" y="256.667" width="16" height="16"/>
  <object id="69" gid="272" x="193.333" y="264" width="16" height="16"/>
  <object id="70" gid="272" x="189.333" y="252" width="16" height="16"/>
  <object id="71" gid="272" x="399.667" y="276.833" width="16" height="16"/>
  <object id="72" gid="272" x="408" y="266" width="16" height="16"/>
  <object id="74" gid="272" x="413.167" y="283.667" width="16" height="16"/>
  <object id="76" gid="272" x="232" y="359.333" width="16" height="16"/>
  <object id="77" gid="272" x="246.667" y="352.667" width="16" height="16"/>
 </objectgroup>
</map>
